icons/crop-2-line.svg

<svg xmlns="http://www.w3.org/2000/svg" width="24" height="24" fill="none"><g clip-path="url(#a)"><g><path fill="#121212" d="M8.414 17H15V19H6C5.73478 19 5.48043 18.8946 5.29289 18.7071C5.10536 18.5196 5 18.2652 5 18V7H2V5H5V2H7V15.586L15.586 7H9V5H17.586L20.142 2.444L21.556 3.858L19 6.414V17H22V19H19V22H17V8.414L8.414 17Z"/></g></g><defs><clipPath id="a"><rect width="24" height="24" fill="white"/></clipPath></defs></svg>

<svg width="24" height="24" fill="none" xmlns="http://www.w3.org/2000/svg"><g clip-path="url(#a)"><path d="M8.414 17H15v2H6a1 1 0 0 1-1-1V7H2V5h3V2h2v13.586L15.586 7H9V5h8.586l2.556-2.556 1.414 1.414L19 6.414V17h3v2h-3v3h-2V8.414L8.414 17Z" /></g><defs><clipPath id="a"><path fill="#fff" d="M0 0h24v24H0z"/></clipPath></defs></svg>
